X: 1737
T: Apple Blossom
R: reel
M: 4/4
K: Amajor
a4 f2- fa|bfaf ed- d2|b2- ba f2 fa|bfaf edBc|
d2 Ad fedf|a2 fa bfed|f2- fe fafe|dBAF ED- D2:|
D2 DEFD DE|FABc d2- dc|BABA FABA|dBAd BAFE|
D2 DEFD DE|FABc d2 de|f2fefa fe|dBAF ED- D2:|

